icons/svg/old_road_shields/h_sec_shield10.svg

<?xml version="1.0" encoding="UTF-8" standalone="no"?>
<!-- Generator: Adobe Illustrator 16.0.4, SVG Export Plug-In . SVG Version: 6.00 Build 0)  -->

<svg
   xmlns:dc="http://purl.org/dc/elements/1.1/"
   xmlns:cc="http://creativecommons.org/ns#"
   xmlns:rdf="http://www.w3.org/1999/02/22-rdf-syntax-ns#"
   xmlns:svg="http://www.w3.org/2000/svg"
   xmlns="http://www.w3.org/2000/svg"
   xmlns:sodipodi="http://sodipodi.sourceforge.net/DTD/sodipodi-0.dtd"
   xmlns:inkscape="http://www.inkscape.org/namespaces/inkscape"
   version="1.1"
   id="Слой_1"
   x="0px"
   y="0px"
   width="80.459999"
   height="16.57"
   viewBox="0 0 80.459997 16.57"
   enable-background="new 0 0 66.455 16.574"
   xml:space="preserve"
   inkscape:version="0.48.4 r9939"
   sodipodi:docname="h_ter_shield10.svg"><metadata
     id="metadata13"><rdf:RDF><cc:Work
         rdf:about=""><dc:format>image/svg+xml</dc:format><dc:type
           rdf:resource="http://purl.org/dc/dcmitype/StillImage" /><dc:title></dc:title></cc:Work></rdf:RDF></metadata><defs
     id="defs11" /><sodipodi:namedview
     pagecolor="#ffffff"
     bordercolor="#666666"
     borderopacity="1"
     objecttolerance="10"
     gridtolerance="10"
     guidetolerance="10"
     inkscape:pageopacity="0"
     inkscape:pageshadow="2"
     inkscape:window-width="549"
     inkscape:window-height="464"
     id="namedview9"
     showgrid="false"
     inkscape:zoom="6.3351138"
     inkscape:cx="0.99756145"
     inkscape:cy="5.6469679"
     inkscape:window-x="445"
     inkscape:window-y="241"
     inkscape:window-maximized="0"
     inkscape:current-layer="Слой_1" /><path
     clip-rule="evenodd"
     d="m 7.843,-9.9909987e-4 64.794868,0 c 4.314,0 7.828,3.51999999987 7.828,7.84199999987 l 0,0.887 c 0,4.3200001 -3.514,7.8400001 -7.828,7.8400001 l -64.794868,0 c -4.314,0 -7.829,-3.52 -7.829,-7.8400001 l 0,-0.887 c 0,-4.323 3.514,-7.84199999987 7.829,-7.84199999987 z"
     id="path3"
     style="color:#000000;fill:#e7b868;fill-opacity:1;fill-rule:evenodd;stroke-width:1.00000002;stroke-linecap:butt;stroke-linejoin:miter;stroke-miterlimit:4;stroke-opacity:1;stroke-dasharray:none;stroke-dashoffset:0;marker:none;visibility:visible;display:inline;overflow:visible;enable-background:accumulate"
     inkscape:connector-curvature="0"
     sodipodi:nodetypes="csssssssc" /><path
     clip-rule="evenodd"
     d="m 8.186,1.0580009 64.166868,0 c 3.743,0 6.8,3.062 6.8,6.811 l 0,0.773 c 0,3.7480001 -3.057,6.8110001 -6.8,6.8110001 l -64.166868,0 c -3.743,0 -6.8,-3.062 -6.8,-6.8110001 l 0,-0.774 c 0,-3.748 3.056,-6.81 6.8,-6.81 z"
     id="path5"
     inkscape:connector-curvature="0"
     style="fill:#ffffff;fill-rule:evenodd"
     sodipodi:nodetypes="csssssssc" /><path
     clip-rule="evenodd"
     d="m 8.929,2.4310009 62.623868,0 c 3.058,0 5.543,2.49 5.543,5.553 l 0,0.6 c 0,3.0620001 -2.485,5.5530001 -5.543,5.5530001 l -62.623868,0 c -3.058,0 -5.543,-2.49 -5.543,-5.5530001 l 0,-0.6 c 0,-3.063 2.485,-5.553 5.543,-5.553 z"
     id="path7"
     style="color:#000000;fill:#e7b868;fill-opacity:1;fill-rule:evenodd;stroke-width:1.00000002;stroke-linecap:butt;stroke-linejoin:miter;stroke-miterlimit:4;stroke-opacity:1;stroke-dasharray:none;stroke-dashoffset:0;marker:none;visibility:visible;display:inline;overflow:visible;enable-background:accumulate"
     inkscape:connector-curvature="0"
     sodipodi:nodetypes="csssssssc" /></svg>

<svg width="81" height="17" viewBox="0 0 81 17" fill="none" xmlns="http://www.w3.org/2000/svg">
<g clip-path="url(#clip0)">
<path fill-rule="evenodd" clip-rule="evenodd" d="M7.843 -0.00100708H72.6379C76.9519 -0.00100708 80.4659 3.51899 80.4659 7.84099V8.72799C80.4659 13.048 76.9519 16.568 72.6379 16.568H7.843C3.529 16.568 0.0139999 13.048 0.0139999 8.72799V7.84099C0.0139999 3.51799 3.528 -0.00100708 7.843 -0.00100708V-0.00100708Z" fill="#E7B868"/>
<path fill-rule="evenodd" clip-rule="evenodd" d="M8.186 1.05801H72.3529C76.0959 1.05801 79.1529 4.12001 79.1529 7.86901V8.64201C79.1529 12.39 76.0959 15.453 72.3529 15.453H8.186C4.443 15.453 1.386 12.391 1.386 8.64201V7.86801C1.386 4.12001 4.442 1.05801 8.186 1.05801V1.05801Z" fill="white"/>
<path fill-rule="evenodd" clip-rule="evenodd" d="M8.929 2.431H71.5529C74.6109 2.431 77.0959 4.921 77.0959 7.984V8.584C77.0959 11.646 74.6109 14.137 71.5529 14.137H8.929C5.871 14.137 3.386 11.647 3.386 8.584V7.984C3.386 4.921 5.871 2.431 8.929 2.431V2.431Z" fill="#E7B868"/>
</g>
<defs>
<clipPath id="clip0">
<path d="M0 0H80.46V16.57H0V0Z" fill="white"/>
</clipPath>
</defs>
</svg>
